X: 98
T:Blackbird II
M:4/4
L:1/8
F:http://blackrosetheband.googlepages.com/ABCTUNES.ABC May 2009
C:Sharon Shannon
K:G
"G"dGB d2 GBd|"C"gce g2 age|"G"dGB d2 GBG|"D"AGGE DEGB|
"G"dGB d2 GBd|"C"gce g2 age|"G"dGBG "D"AGED|1 "G"EGG G2 DGB:|2 "G"EGG G2 dBd||
"G"bdb b2 dbd|"D"ada a2 dad|"G"bdb b2 dbd|"C"c'dc' c'2 dc'd|
"G"bdb b2 dbd|"D"ada a2 dad|"G"bdb b2 dbd|"C"c'dbd adge||

